svg/other/boom_line.svg

<?xml version="1.0" encoding="UTF-8"?>
<svg width="24px" height="24px" viewBox="0 0 24 24" version="1.1" xmlns="http://www.w3.org/2000/svg" xmlns:xlink="http://www.w3.org/1999/xlink">
    <title>boom_line</title>
    <g id="Icon" stroke="none" stroke-width="1" fill="none" fill-rule="evenodd">
        <g id="Other" transform="translate(-146.000000, -96.000000)">
            <g id="boom_line" transform="translate(146.000000, 96.000000)">
                <path d="M24,0 L24,24 L0,24 L0,0 L24,0 Z M12.5935,23.2578 L12.5819,23.2595 L12.5109,23.295 L12.4919,23.2987 L12.4767,23.295 L12.4057,23.2595 C12.3958,23.2564 12.387,23.259 12.3821,23.2649 L12.378,23.2758 L12.3609,23.7031 L12.3659,23.7235 L12.3769,23.7357 L12.4805,23.8097 L12.4953,23.8136 L12.5071,23.8097 L12.6107,23.7357 L12.6233,23.7197 L12.6267,23.7031 L12.6096,23.2758 C12.6076,23.2657 12.601,23.2593 12.5935,23.2578 Z M12.8584,23.1453 L12.8445,23.1473 L12.6598,23.2397 L12.6499,23.2499 L12.6472,23.2611 L12.6651,23.6906 L12.6699,23.7034 L12.6784,23.7105 L12.8793,23.8032 C12.8914,23.8069 12.9022,23.803 12.9078,23.7952 L12.9118,23.7812 L12.8777,23.1665 C12.8753,23.1546 12.8674,23.147 12.8584,23.1453 Z M12.143,23.1473 C12.1332,23.1424 12.1222,23.1453 12.1156,23.1526 L12.1099,23.1665 L12.0758,23.7812 C12.0751,23.7927 12.0828,23.8019 12.0926,23.8046 L12.1083,23.8032 L12.3092,23.7105 L12.3186,23.7024 L12.3225,23.6906 L12.3404,23.2611 L12.3372,23.2485 L12.3278,23.2397 L12.143,23.1473 Z" id="MingCute" fill-rule="nonzero"></path>
                <path d="M7.65442,2.70276 C8.07833,2.55291 8.55013,2.7044 8.80757,3.07303 C9.62261,4.2401 10.9727,5.00018 12.5001,5.00018 C13.6075,5.00018 14.6192,4.60143 15.4034,3.9385 C15.6815,3.70338 16.0654,3.63804 16.4056,3.76793 C16.7459,3.89781 16.9886,4.20239 17.0393,4.56303 C17.3121,6.50525 18.9823,8.00006 20.9998,8.00018 C21.3787,8.00021 21.7251,8.21436 21.8944,8.55332 C22.0637,8.89228 22.0269,9.29781 21.7994,9.60076 C21.2973,10.2692 21.0001,11.0986 21.0001,12.0002 C21.0001,12.9018 21.2973,13.7312 21.7994,14.3996 C22.0269,14.7026 22.0637,15.1081 21.8944,15.447 C21.7251,15.786 21.3787,16.0002 20.9998,16.0002 C18.9568,16.0003 17.2702,17.533 17.0296,19.5109 C16.9794,19.9237 16.6789,20.2623 16.275,20.3613 C15.8711,20.4604 15.4481,20.299 15.2126,19.9563 C14.3999,18.7729 13.0401,18.0002 11.5001,18.0002 C10.318,18.0002 9.24438,18.4546 8.44067,19.2002 C8.19011,19.4326 7.83821,19.521 7.50758,19.4345 C7.17694,19.348 6.91336,19.0987 6.80867,18.7734 C6.29056,17.1634 4.78,16.0003 3.0004,16.0002 C2.62152,16.0002 2.27519,15.786 2.10588,15.447 C1.93658,15.1081 1.97338,14.7025 2.20093,14.3996 C2.70301,13.7312 3.00013,12.9018 3.00013,12.0002 C3.00013,11.0985 2.70301,10.2692 2.20093,9.60076 C1.97338,9.29782 1.93658,8.89229 2.10589,8.55333 C2.2752,8.21437 2.62153,8.00022 3.00042,8.00018 C5.2094,8.00001 7.00009,6.20921 7.00009,4.00018 C7.00009,3.90432 6.99673,3.80939 6.99015,3.71548 C6.95873,3.26696 7.23051,2.85262 7.65442,2.70276 Z M8.72744,5.79371 C8.11992,7.73573 6.55189,9.25329 4.57968,9.79008 C4.85096,10.4744 5.00013,11.2204 5.00013,12.0002 C5.00013,12.78 4.85096,13.5259 4.57968,14.2103 C6.09322,14.6222 7.36806,15.6118 8.15387,16.9268 C9.13137,16.3388 10.2768,16.0002 11.5001,16.0002 C13.0431,16.0002 14.4604,16.5383 15.5745,17.4356 C16.3167,15.8679 17.7179,14.6736 19.4206,14.2102 C19.1493,13.5259 19.0001,12.78 19.0001,12.0002 C19.0001,11.2204 19.1493,10.4745 19.4206,9.79015 C17.6203,9.30025 16.1572,7.99315 15.4535,6.29174 C14.5671,6.74454 13.5629,7.00018 12.5001,7.00018 C11.0932,7.00018 9.79078,6.5528 8.72744,5.79371 Z" id="形状" fill="#09244B"></path>
            </g>
        </g>
    </g>
</svg>

<svg xmlns="http://www.w3.org/2000/svg" width="24" height="24"><g fill="none" fill-rule="evenodd"><path d="M24 0v24H0V0h24ZM12.594 23.258l-.012.002-.071.035-.02.004-.014-.004-.071-.036c-.01-.003-.019 0-.024.006l-.004.01-.017.428.005.02.01.013.104.074.015.004.012-.004.104-.074.012-.016.004-.017-.017-.427c-.002-.01-.009-.017-.016-.018Zm.264-.113-.014.002-.184.093-.01.01-.003.011.018.43.005.012.008.008.201.092c.012.004.023 0 .029-.008l.004-.014-.034-.614c-.003-.012-.01-.02-.02-.022Zm-.715.002a.023.023 0 0 0-.027.006l-.006.014-.034.614c0 .012.007.02.017.024l.015-.002.201-.093.01-.008.003-.011.018-.43-.003-.012-.01-.01-.184-.092Z"/><path fill="#09244B" d="M7.654 2.703a1 1 0 0 1 1.154.37A4.494 4.494 0 0 0 12.5 5c1.108 0 2.12-.399 2.903-1.061a1 1 0 0 1 1.636.624A4.001 4.001 0 0 0 21 8a1 1 0 0 1 .8 1.6A3.978 3.978 0 0 0 21 12c0 .902.297 1.731.8 2.4A1 1 0 0 1 21 16a4 4 0 0 0-3.97 3.51 1 1 0 0 1-1.817.446A4.494 4.494 0 0 0 11.5 18a4.48 4.48 0 0 0-3.06 1.2 1 1 0 0 1-1.631-.427A4.002 4.002 0 0 0 3 16a1 1 0 0 1-.8-1.6c.503-.669.8-1.498.8-2.4 0-.902-.297-1.73-.8-2.4A1 1 0 0 1 3 8a4 4 0 0 0 3.99-4.285 1 1 0 0 1 .664-1.012Zm1.073 3.09A6.013 6.013 0 0 1 4.58 9.79c.271.684.42 1.43.42 2.21s-.149 1.526-.42 2.21a6.012 6.012 0 0 1 3.574 2.717A6.473 6.473 0 0 1 11.5 16c1.543 0 2.96.538 4.075 1.436a6.014 6.014 0 0 1 3.846-3.226A5.984 5.984 0 0 1 19 12c0-.78.148-1.525.42-2.21a6.014 6.014 0 0 1-3.967-3.498A6.475 6.475 0 0 1 12.5 7a6.472 6.472 0 0 1-3.773-1.206Z"/></g></svg>
